packages/kaspersky-hexa-ui-icons/src/iconsSVGs/64x42/FlagMd.svg

<svg xmlns="http://www.w3.org/2000/svg" width="64" height="42" fill="none" viewBox="0 0 64 42"><g clip-path="url(#a)"><rect width="64" height="42" fill="#fff" rx="5"/><path fill="#eb1c43" d="M42.6666 0H64v42H42.6666z"/><path fill="#115bcb" fill-rule="evenodd" d="M0 42h21.3333V0H0z" clip-rule="evenodd"/><path fill="#ffd953" fill-rule="evenodd" d="M21.3335 42h21.3333V0H21.3335z" clip-rule="evenodd"/><path fill="#af7f59" fill-rule="evenodd" d="M30.5999 16.8h-2.8v8.4l4.2 2.8 4.2-2.8v-8.4h-2.8l-1.4-4.2zm2.8002 2.8001h-2.8v4.2h2.8z" clip-rule="evenodd"/></g><defs><clipPath id="a"><rect width="64" height="42" fill="#fff" rx="5"/></clipPath></defs></svg>

<svg width="64" height="42" viewBox="0 0 64 42" fill="none" xmlns="http://www.w3.org/2000/svg">
<g clip-path="url(#clip0_37941_2300)">
<rect width="64" height="42" rx="5" fill="white"/>
<rect x="42.6666" width="21.3334" height="42" fill="#EB1C43"/>
<path fill-rule="evenodd" clip-rule="evenodd" d="M0 42H21.3333V0H0V42Z" fill="#115BCB"/>
<path fill-rule="evenodd" clip-rule="evenodd" d="M21.3335 42H42.6668V0H21.3335V42Z" fill="#FFD953"/>
<path fill-rule="evenodd" clip-rule="evenodd" d="M30.5999 16.8H27.7999V25.2L31.9999 28L36.1999 25.2V16.8H33.3999L31.9999 12.6L30.5999 16.8ZM33.4001 19.6001H30.6001V23.8001H33.4001V19.6001Z" fill="#AF7F59"/>
</g>
<defs>
<clipPath id="clip0_37941_2300">
<rect width="64" height="42" rx="5" fill="white"/>
</clipPath>
</defs>
</svg>
